ui/StatusQ/src/assets/img/icons/new_chat.svg

<svg fill="none" height="20" viewBox="0 0 20 20" width="20" xmlns="http://www.w3.org/2000/svg"><g clip-rule="evenodd" fill-rule="evenodd"><path d="m18.3333 5.41666c0-2.07107-1.6789-3.75-3.75-3.75h-4.58334c-2.76142 0-5 2.23857-5 5v.83333c0 .92047.74619 1.66667 1.66667 1.66667h7.91667c2.0711 0 3.75-1.67893 3.75-3.75zm-3.75-2.5h-4.58334c-2.07107 0-3.75 1.67893-3.75 3.75v.83333c0 .23012.18655.41667.41667.41667h7.91667c1.3807 0 2.5-1.11929 2.5-2.5 0-1.38072-1.1193-2.5-2.5-2.5z" fill="#000"/><path d="m1.66663 14.5833c0 2.0711 1.67893 3.75 3.75 3.75h4.58333c2.76144 0 5.00004-2.2386 5.00004-5v-.8333c0-.9205-.7462-1.6667-1.6667-1.6667h-7.91667c-2.07107 0-3.75 1.679-3.75 3.75zm3.75 2.5h4.58333c2.07104 0 3.75004-1.6789 3.75004-3.75v-.8333c0-.2301-.1866-.4167-.4167-.4167h-7.91667c-1.38071 0-2.5 1.1193-2.5 2.5s1.11928 2.5 2.5 2.5z" fill="#4360df"/></g></svg>

<svg width="20" height="20" viewBox="0 0 20 20" fill="none" xmlns="http://www.w3.org/2000/svg">
<path fill-rule="evenodd" clip-rule="evenodd" d="M18.3333 5.41666C18.3333 3.34559 16.6544 1.66666 14.5833 1.66666H9.99996C7.23854 1.66666 4.99996 3.90523 4.99996 6.66666V7.49999C4.99996 8.42046 5.74615 9.16666 6.66663 9.16666H14.5833C16.6544 9.16666 18.3333 7.48773 18.3333 5.41666ZM14.5833 2.91666H9.99996C7.92889 2.91666 6.24996 4.59559 6.24996 6.66666V7.49999C6.24996 7.73011 6.43651 7.91666 6.66663 7.91666H14.5833C15.964 7.91666 17.0833 6.79737 17.0833 5.41666C17.0833 4.03594 15.964 2.91666 14.5833 2.91666Z" fill="black"/>
<path fill-rule="evenodd" clip-rule="evenodd" d="M1.66663 14.5833C1.66663 16.6544 3.34556 18.3333 5.41663 18.3333L9.99996 18.3333C12.7614 18.3333 15 16.0947 15 13.3333L15 12.5C15 11.5795 14.2538 10.8333 13.3333 10.8333L5.41663 10.8333C3.34556 10.8333 1.66663 12.5123 1.66663 14.5833ZM5.41663 17.0833L9.99996 17.0833C12.071 17.0833 13.75 15.4044 13.75 13.3333L13.75 12.5C13.75 12.2699 13.5634 12.0833 13.3333 12.0833L5.41663 12.0833C4.03592 12.0833 2.91663 13.2026 2.91663 14.5833C2.91663 15.964 4.03591 17.0833 5.41663 17.0833Z" fill="#4360DF"/>
</svg>
